X:1
T:Pellarmor
C:
R:Polska
Z:Anton Teljebck 2007-12-06
S:efter Gssa Anders
O:Orsa
S:Knd genom Jonas Hjalmarsson
M:3/4
L:1/8
K:Dm 
^c/ | d>e f2 d>e | (3ge^c A7/ c/ | d>e f>a g>e | f2 e7/ ^c | 
d>e f2 d>e | (3ge^c A7/ F/ | DE F2 G>A | (3BAG E4- | E>D E4 :|
A/ | A>g- g>f d>e | ^c2 A7/ ^c/ | d>e f<a g>e | f2 e4- | e2 e4 |
|: A>a (3geb a>e | f>a (3geb a2- | a>g e<f d>d | e/g/e/^c/ d2 e2 | (3fef a2 g>e | f2 e4 :|
